svgs/binauralbeats.svg

<svg xmlns="http://www.w3.org/2000/svg" viewBox="0 0 192 192"><path fill="none" stroke="#000" stroke-linecap="round" stroke-linejoin="round" stroke-width="12" d="M166.905 175.5H25.095a8.6 8.6 0 0 1-7.444-4.297 8.6 8.6 0 0 1-1.151-4.298V25.095c0-2.279.906-4.467 2.517-6.078a8.599 8.599 0 0 1 6.078-2.517h141.81a8.6 8.6 0 0 1 7.444 4.297 8.6 8.6 0 0 1 1.151 4.298v141.81a8.6 8.6 0 0 1-4.297 7.444 8.6 8.6 0 0 1-4.298 1.151Z"/><path fill="none" stroke="#000" stroke-linecap="round" stroke-linejoin="round" stroke-width="12" d="M111.814 102.618a19 19 0 0 1 5.563-13.388 19 19 0 0 1 13.388-5.563c5.024 0 9.848 1.998 13.401 5.55a18.962 18.962 0 0 1 5.55 13.401v12.333c0 5.024-1.998 9.848-5.55 13.401a18.962 18.962 0 0 1-13.401 5.55 19 19 0 0 1-13.388-5.563 19 19 0 0 1-5.563-13.388m0 18.951V58.098M73.525 96c5.023.002 9.845 2 13.397 5.553a18.958 18.958 0 0 1 5.548 13.398c0 5.023-1.997 9.846-5.548 13.398a18.956 18.956 0 0 1-13.397 5.553H42.284V58.098h31.241c5.024 0 9.848 1.998 13.401 5.55a18.962 18.962 0 0 1 5.55 13.401c0 5.024-1.998 9.848-5.55 13.4A18.959 18.959 0 0 1 73.525 96Zm0 0H42.284"/></svg>

<svg
    xmlns="http://www.w3.org/2000/svg"
    viewBox="0 0 192 192"
    id="vector">
    <path
        id="path"
        d="M 166.905 175.5 L 25.095 175.5 C 23.586 175.5 22.104 175.103 20.797 174.349 C 19.491 173.594 18.406 172.509 17.651 171.203 C 16.897 169.896 16.5 168.414 16.5 166.905 L 16.5 25.095 C 16.5 22.816 17.406 20.628 19.017 19.017 C 20.628 17.406 22.816 16.5 25.095 16.5 L 166.905 16.5 C 168.414 16.5 169.896 16.897 171.203 17.651 C 172.509 18.406 173.594 19.491 174.349 20.797 C 175.103 22.104 175.5 23.586 175.5 25.095 L 175.5 166.905 C 175.5 168.414 175.103 169.896 174.349 171.203 C 173.594 172.509 172.509 173.594 171.203 174.349 C 169.896 175.103 168.414 175.5 166.905 175.5 Z"
        fill="none"
        stroke="#000000"
        stroke-width="12"
        stroke-linecap="round"
        stroke-linejoin="round"/>
    <path
        id="path_1"
        d="M 111.814 102.618 C 111.825 97.597 113.827 92.78 117.377 89.23 C 120.927 85.68 125.744 83.678 130.765 83.667 C 135.789 83.667 140.613 85.665 144.166 89.217 C 147.718 92.77 149.716 97.594 149.716 102.618 L 149.716 114.951 C 149.716 119.975 147.718 124.799 144.166 128.352 C 140.613 131.904 135.789 133.902 130.765 133.902 C 125.744 133.891 120.927 131.889 117.377 128.339 C 113.827 124.789 111.825 119.972 111.814 114.951 M 111.814 133.902 L 111.814 58.098"
        fill="none"
        stroke="#000000"
        stroke-width="12"
        stroke-linecap="round"
        stroke-linejoin="round"/>
    <path
        id="path_2"
        d="M 73.525 96 C 78.548 96.002 83.37 98 86.922 101.553 C 90.473 105.105 92.47 109.928 92.47 114.951 C 92.47 119.974 90.473 124.797 86.922 128.349 C 83.37 131.902 78.548 133.901 73.525 133.902 L 42.284 133.902 L 42.284 58.098 L 73.525 58.098 C 78.549 58.098 83.373 60.096 86.926 63.648 C 90.478 67.201 92.476 72.025 92.476 77.049 C 92.476 82.073 90.478 86.897 86.926 90.449 C 83.373 94.002 78.549 96 73.525 96 Z M 73.525 96 L 42.284 96"
        fill="none"
        stroke="#000000"
        stroke-width="12"
        stroke-linecap="round"
        stroke-linejoin="round"/>
</svg>
